X:3
$SmallLMargin
$SmallRMargin
T:Fleur de Mandragore
C: \251Michel Bordeleau
R:Reel
L:1/8
M:C|
K:A
%%text Notes in parentheses are "ghost notes" and should be played very lightly.
"A"EGAE GABA|Aced cA"<("">)"AA|"F#m/C#"EGAE GABB-| BABd cA"<("">)"AA|
"D"EGAE GABA|Aced cA"<("">)"AA|"E"EGAE GABB-|1BABd cAA2:|[2 BABc Aceg ||
[|:"A"a4 a2 ga| "Bm"bAaA (3gag ec |"D"dfed cABc|"E"defg agfe|
"A"a4 a2 ga| "Bm"bAaA (3gag ec |"D"dfed "A"cABc|[1  "E"dcBc "A"Aceg:|[2 "E"dcBc "A"BA A2 ||
["Final""E"dcBc "A"A2z2|]
